X:1
T:Fear an Bhate (The Boatman)
M:3/4
L:1/2
K:G
 E F/2| G3/2| G d/2| B/2- A/2 G/2| F3/2| A3/2| B E/2| E3/2| E G/2|\
 F E/2| D3/2| B,3/2| B, D/2| E3/2| E E/2| D E/2| G3/2| A A/2| e d/2|\
 B3/2| A F/2| G F/2| E3/2| E3/2|
